X:190
T:Y Bwced Perffaith - The Perfect Bucket
M:4/4
L:1/8
Q:120
C:Peter Stacey
R:Slow air
K:D
d4 B4 | A4 F2 ED | d4 B4 | A4 F2 ED :||: E2 E2 B4|
AB GA F2 ED | ED dc B4 | AB GA F2 ED :||: A>G FG A3 F|
GF GA B2 A2 | A>G FG A3 F |1 Gd Fd Gd A2 :|
|2 Gd Fd Gd A2- || A D FB AG FD | AG F G2 E F2- |
F D FB AG FD | AG FG E4- | E D FB AG FD | AG F G2 E F2- |
F D FB AG FD | AG FG E4 ||
